!!!COM: Corelli, Arcangelo
!!!OTL: 
!!!ONM: Opus 6, No. 5
!!!OMV: 4
!!!CDT: 1653/2/17/-1713/1/8/
!!!OCY: Italia
**kern	**kern	**kern	**kern	**kern	**kern	**kern
*clefC	*clefG	*clefG	*clefG	*clefC	*clefG	*clefG
*k[b-]	*k[b-]	*k[b-]	*k[b-]	*k[b-]	*k[b-]	*k[b-]
*d:	*d:	*d:	*d:	*d:	*d:	*d:
*M3/4	*M3/4	*M3/4	*M3/4	*M3/4	*M3/4	*M3/4
=1	=1	=1	=1	=1	=1	=1
2r	2r	2r	2r	2r	2r	2r
4G	4g	4d	4b-	4G	4d	4b-
=2	=2	=2	=2	=2	=2	=2
2F#	2d	2d	2a	2F#	2d	2a
4r	4r	4r	4r	4B-	4dd	4dd
=3	=3	=3	=3	=3	=3	=3
2r	2r	2r	2r	2E-	4dd	2gg
.	.	.	.	.	4cc	.
4C	4cc	4ee-	4gg	4c	4ee-	4gg
=4	=4	=4	=4	=4	=4	=4
2C	2a	2dd	2ff#	2c	2dd	2ff#
4r	4r	4r	4r	4B-	8gg	4ddd
.	.	.	.	.	8bb-	.
=5	=5	=5	=5	=5	=5	=5
2.r	2.r	2.r	2.r	4c	8aa	8ccc
.	.	.	.	.	8gg	8bb-
.	.	.	.	4d	4.gg	4.aa
.	.	.	.	4D	.	.
.	.	.	.	.	8ff#	8ddd
=6	=6	=6	=6	=6	=6	=6
4G	4g	4b-	4ee-	4G	4b-	4ee-
4F#	4d	4a	4dd	4F#	4a	4dd
4r	4r	4r	4r	4r	4r	4r
=7	=7	=7	=7	=7	=7	=7
2.r	2.r	2.r	2.r	4E-	4gg	4ccc
.	.	.	.	4D	4ff	4bb
.	.	.	.	4r	4r	4r
=8	=8	=8	=8	=8	=8	=8
4c	4cc	4ee-	4gg	4c	4ee-	4gg
4F#	4cc	4dd	4aa	4F#	4dd	4aa
4r	4r	4r	4r	4r	4r	4r
=9	=9	=9	=9	=9	=9	=9
2.r	2.r	2.r	2.r	4G	4dd	4bb-
.	.	.	.	4C#	4ee	4aa
.	.	.	.	4r	4r	4r
=10	=10	=10	=10	=10	=10	=10
4d	4a	4a	4ff	4d	4a	4ff
4B	4g	4dd	4ff	4B	4dd	4ff
4r	4r	4r	4r	4r	4r	4r
=11	=11	=11	=11	=11	=11	=11
2.r	2.r	2.r	2.r	4c	4g	4ee-
.	.	.	.	4A	4cc	4ee-
.	.	.	.	4r	4r	4r
=12	=12	=12	=12	=12	=12	=12
4B-	4d	4f	4dd	4B-	4f	4dd
4F#	4d	4a	4cc	4F#	4a	4cc
4r	4r	4r	4r	4r	4r	4r
=13	=13	=13	=13	=13	=13	=13
2.r	2.r	2.r	2.r	4G	4d	4b-
.	.	.	.	4C	4e-	4a-
.	.	.	.	4r	4r	4r
=14	=14	=14	=14	=14	=14	=14
2C	2a	2d	2f#	2C	2d	2f#
4BB-	4d	4g	4dd	4BB-	4g	4dd
=15	=15	=15	=15	=15	=15	=15
4C	8e-	4g	8cc	4C	4g	8cc
.	8g	.	8b-	.	.	8b-
4D	4.d	4.g	2a	4D	4.g	2a
4DD	.	.	.	4DD	.	.
.	8d	8f#	.	.	8f#	.
=16	=16	=16	=16	=16	=16	=16
2GG	2d	2g	2g	2GG	2g	2g
[4FF	[4d	[4a	[4dd	[4FF	[4a	[4dd
=17	=17	=17	=17	=17	=17	=17
4FF]	4d]	4a]	4dd]	4FF]	4a]	4dd]
2EE-	2G	2g	2cc	2EE-	2g	2cc
=18	=18	=18	=18	=18	=18	=18
2.DD	2.A	2.f#	2.dd	2.DD	2.f#	2.dd
==	==	==	==	==	==	==
*-	*-	*-	*-	*-	*-	*-
!!!RWG: This file only contains pitch and duration data.
!!!RWG: Transposing instruments are not transposed.
!!!RWG: Durations of rests and tied notes may be interpreted.
!!!RWG: Key is interpreted using the Humdrum key tool.
!!!SCA: 
!!!YOR: Chrysander Edition
!!!AGN: concerto grosso
!!!AFT: stage1
!!!ENC: F. Bennion
!!!END: 1997/04/15
!!!AST: baroque
!!!YEC: Copyright 1994, Center for Computer Assisted Research in the Humanities
!!!YEM: Rights to all derivative electronic formats reserved.
!!!YEM: Refer to licensing agreement for further details.
!!!YEN: United States of America
!!!EED: W.B. Hewlett
!!!KEY: 109149000
!!!EMD: Converted from MuseData to Humdrum Aug 9, 1999, by Bret Aarden using muse2kern.
!!!VTS: 3589058102
